public/images/spinner.svg

<svg fill="none" height="64" viewBox="0 0 64 64" width="64" xmlns="http://www.w3.org/2000/svg"><path d="m64 32c0 6.329-1.8768 12.5159-5.393 17.7782-3.5162 5.2624-8.5139 9.3639-14.3611 11.7859-5.8473 2.422-12.2814 3.0558-18.4888 1.821-6.2074-1.2347-11.9092-4.2824-16.38452-8.7577-4.47528-4.4753-7.52298-10.1771-8.757709-16.3845-1.234727-6.2074-.6010202-12.6415 1.820989-18.4888 2.422-5.8472 6.52352-10.84492 11.78594-14.36113 5.2623-3.5162 11.4492-5.39297008 17.7782-5.39297v12.8c-3.7974 0-7.5095 1.1261-10.6669 3.2358-3.1575 2.1097-5.6184 5.1083-7.0716 8.6167-1.4532 3.5083-1.8334 7.3688-1.0926 11.0932.7409 3.7245 2.5695 7.1456 5.2546 9.8308 2.6852 2.6851 6.1063 4.5137 9.8308 5.2546 3.7244.7408 7.5849.3606 11.0932-1.0926 3.5084-1.4532 6.507-3.9141 8.6167-7.0715 2.1097-3.1575 3.2358-6.8696 3.2358-10.667z" fill="#f4b183"/></svg>

<svg width="64" height="64" viewBox="0 0 64 64" fill="none" xmlns="http://www.w3.org/2000/svg">
<path d="M64 32C64 38.329 62.1232 44.5159 58.607 49.7782C55.0908 55.0406 50.0931 59.1421 44.2459 61.5641C38.3986 63.9861 31.9645 64.6199 25.7571 63.3851C19.5497 62.1504 13.8479 59.1027 9.37258 54.6274C4.8973 50.1521 1.8496 44.4503 0.614871 38.2429C-0.619856 32.0355 0.0138508 25.6014 2.43586 19.7541C4.85786 13.9069 8.95938 8.90918 14.2218 5.39297C19.4841 1.87677 25.671 -7.54726e-08 32 0V12.8C28.2026 12.8 24.4905 13.9261 21.3331 16.0358C18.1756 18.1455 15.7147 21.1441 14.2615 24.6525C12.8083 28.1608 12.4281 32.0213 13.1689 35.7457C13.9098 39.4702 15.7384 42.8913 18.4235 45.5765C21.1087 48.2616 24.5298 50.0902 28.2543 50.8311C31.9787 51.5719 35.8392 51.1917 39.3475 49.7385C42.8559 48.2853 45.8545 45.8244 47.9642 42.667C50.0739 39.5095 51.2 35.7974 51.2 32H64Z" fill="#F4B183"/>
</svg>
